X:1
T:Asmara, 76.76.77.76
T:Asmara, 76.76.77.76
T:Francis H. Nash, 1865
T:Public Domain Courtesy of the Cyber Hymnal™
C:Francis H. Nash, 1865
Z:Public Domain
Z:Courtesy of the Cyber Hymnal™
%%score 1 2
L:1/8
Q:1/4=107
M:2/4
K:G
V:1 treble 
V:2 bass 
V:1
"^Allegretto" [DG]2 D2 | [DG]2 [DFA]2 | ([DGB][FA]) ([DGB][Ac]) | !fermata![DGBd]2 z2 | %4
 [DBd]2 ([DGB][Bd]) | ([Ece][Bd]) ([EAc][GB]) | [DFA]2 [DFA]2 | z4 | [DG]2 D2 | [DG]2 [DFA]2 | %10
 ([DGB][FA]) ([DGB][Ac]) | [DBd]2 z2 | ([Ece][Bd]) ([EAc][GB]) | [DFA]2 [CFd]2 | G2 G2 | z4 | %16
 ([FA][GB]) ([FA][EG]) | ([DF][EG]) [FA]2 | ([GB][FA]) (G[GB]) | [FA]4 | ([FA][GB]) ([FA][EG]) | %21
 ([DF][EG]) ([FA][GB]) | ([FA][EG]) [DF][^CE] | D4 | [DG]2 D2 | [DG]2 [DFA]2 | %26
 ([DGB][FA]) ([DGB][Ac]) | [DGBd]4 | ([Ece][Bd]) [EAc][GB] | [DFA]2 [CFd]2 | G2 !fermata!G2 |] %31
V:2
 [G,,G,B,]2 [G,,G,B,]2 | B,,2 D,2 | G,2 G,2 | G,2 z2 | G,2 G,2 | C,2 C,2 | D,2 D,2 | z4 | %8
 [G,,G,B,]2 [G,,G,B,]2 | B,,2 D,2 | G,2 G,2 | G,2 z2 | C,2 C,2 | D,2 D,2 | [G,,G,B,]2 [G,,G,B,]2 | %15
 z4 | D,2 D,2 | D,2 D,2 | G,2 G,2 | D,4 | D,2 D,2 | D,2 D,2 | A,,2 A,,2 | D,4 | %24
 [G,,G,B,]2 [G,,G,B,]2 | B,,2 D,2 | G,2 G,2 | [G,B,]4 | C,2 C,2 | D,2 D,2 | %30
 [G,,G,B,]2 !fermata![G,,G,B,]2 |] %31

